src/images/mobile-icons/heart-outline.svg

<svg viewBox="0 0 512 512" xmlns="http://www.w3.org/2000/svg" xmlns:xlink="http://www.w3.org/1999/xlink">
  <title>heart-outline</title>
  <path d="M403.010091,104.490882 C430.167882,123.574595 446.795495,154.297117 447.920107,187.470259 C450.426699,257.402687 393.273398,314.397765 303.936702,396.490239 L281.900046,416.668536 C267.267209,430.061742 244.813947,429.979098 230.280027,416.488537 L195.212188,384.394142 C113.320852,308.808499 61.8529196,254.000213 64.0599658,187.470259 C65.1868994,154.295323 81.8184018,123.572456 108.979982,104.490882 C156.165601,72.7383446 219.739274,81.9363676 255.990036,125.760722 C292.192762,81.8432945 355.844773,72.6345637 403.010091,104.490882 Z M223.113369,152.955744 C200.84343,126.033118 161.788043,120.382472 133.506738,139.403383 C117.298838,150.789769 107.374498,169.122699 106.703175,188.884893 L106.661884,193.861613 C107.36937,234.265469 134.273667,269.619563 231.612558,359.795437 L256.170667,382.357333 L279.765507,360.685974 C346.000546,299.404384 372.311543,271.559998 389.034679,243.200711 L393.192538,235.782061 C402.027043,219.193721 405.828753,204.285535 405.277938,188.915883 C404.654795,170.534796 396.055075,153.414564 381.854581,141.944997 L378.837333,139.669333 L375.609189,137.623166 C348.277445,121.487814 313.295586,126.548745 291.657631,149.768642 L288.912688,152.900056 L256.046748,192.76964 L223.113369,152.955744 Z" fill="#000" fill-rule="nonzero" stroke="none" stroke-width="1"></path>
</svg>

<svg viewBox="0 0 512 512" xmlns="http://www.w3.org/2000/svg" xmlns:xlink="http://www.w3.org/1999/xlink">
  <title>heart-outline</title>
  <path d="M403.01 104.49a105.799 105.799 0 0144.91 82.98c2.507 69.933-54.647 126.928-143.983 209.02L281.9 416.67c-14.633 13.393-37.086 13.31-51.62-.18l-35.068-32.095C113.321 308.808 61.852 254 64.06 187.47a105.799 105.799 0 0144.92-82.98c47.186-31.752 110.76-22.554 147.01 21.27 36.203-43.917 99.855-53.125 147.02-21.27zm-179.897 48.466c-22.27-26.923-61.325-32.574-89.606-13.553-16.208 11.387-26.133 29.72-26.804 49.482l-.041 4.977c.707 40.403 27.612 75.758 124.95 165.933l24.559 22.562 23.595-21.671C346 299.404 372.312 271.56 389.035 243.201l4.158-7.419c8.834-16.588 12.636-31.496 12.085-46.866a63.133 63.133 0 00-23.423-46.971l-3.018-2.276-3.228-2.046c-27.332-16.135-62.313-11.074-83.951 12.146l-2.745 3.131-32.866 39.87-32.934-39.814z" fill="#000" fill-rule="nonzero" stroke="none" stroke-width="1"></path>
</svg>
